assets/icons/sixthBlockThirdIconsWhite.svg

<?xml version="1.0" encoding="UTF-8"?> <svg xmlns="http://www.w3.org/2000/svg" width="101" height="101" viewBox="0 0 101 101" fill="none"> <path d="M92.7879 4.90039H75.1189C74.2899 4.90039 73.6189 5.57139 73.6189 6.40039V11.9384C39.4929 12.5954 11.8819 40.2734 11.3369 74.4264H7.21289C6.38389 74.4264 5.71289 75.0974 5.71289 75.9264V93.5994C5.71289 94.4284 6.38389 95.0994 7.21289 95.0994H58.1869C59.0159 95.0994 59.6869 94.4284 59.6869 93.5994V75.9254C59.6869 75.0964 59.0159 74.4254 58.1869 74.4254H50.4789C50.8769 61.9114 61.0629 51.8314 73.6189 51.6044V57.3774C73.6189 58.2064 74.2899 58.8774 75.1189 58.8774H92.7879C93.6169 58.8774 94.2879 58.2064 94.2879 57.3774V6.39939C94.2879 5.57139 93.6169 4.90039 92.7879 4.90039ZM49.7789 64.3434L18.7579 52.7114C21.5679 45.8044 25.6149 39.5314 30.6279 34.1654L54.0729 57.6634C52.3279 59.6514 50.8749 61.9004 49.7789 64.3434ZM56.6869 92.0984H8.71289V77.4254H56.6869V92.0984V92.0984ZM14.3369 74.4254C14.4479 67.8124 15.6209 61.4564 17.6979 55.5174L48.7049 67.1434C47.9719 69.4504 47.5509 71.8944 47.4789 74.4244L14.3369 74.4254ZM56.1709 55.5184L32.7299 32.0244C38.6249 26.3044 45.6719 21.7694 53.4919 18.8104L62.7359 51.1274C60.3299 52.2634 58.1179 53.7474 56.1709 55.5184ZM65.5349 50.0004L56.3289 17.8174C61.7969 16.0554 67.6019 15.0604 73.6189 14.9384V48.6054C70.7959 48.6494 68.0799 49.1374 65.5349 50.0004ZM91.2879 55.8774H76.6189V7.89939H91.2879V55.8774V55.8774Z" fill="#ffffff"></path> </svg>

<svg xmlns="http://www.w3.org/2000/svg" width="101" height="101" fill="none"><path d="M92.788 4.9h-17.67a1.5 1.5 0 0 0-1.5 1.5v5.538c-34.125.657-61.736 28.335-62.281 62.488H7.213a1.5 1.5 0 0 0-1.5 1.5V93.6a1.5 1.5 0 0 0 1.5 1.5h50.974a1.5 1.5 0 0 0 1.5-1.5V75.925a1.5 1.5 0 0 0-1.5-1.5h-7.708c.398-12.514 10.584-22.594 23.14-22.82v5.772a1.5 1.5 0 0 0 1.5 1.5h17.669a1.5 1.5 0 0 0 1.5-1.5V6.4a1.5 1.5 0 0 0-1.5-1.499Zm-43.01 59.443-31.02-11.632a60.668 60.668 0 0 1 11.87-18.546l23.445 23.498a26.69 26.69 0 0 0-4.294 6.68Zm6.909 27.755H8.713V77.425h47.974v14.673Zm-42.35-17.673a60.24 60.24 0 0 1 3.36-18.908l31.008 11.626a26.506 26.506 0 0 0-1.226 7.281l-33.142.001ZM56.17 55.518 32.73 32.024A60.665 60.665 0 0 1 53.492 18.81l9.244 32.317a26.703 26.703 0 0 0-6.565 4.391ZM65.535 50l-9.206-32.183a60.275 60.275 0 0 1 17.29-2.879v33.667A26.413 26.413 0 0 0 65.535 50Zm25.753 5.877h-14.67V7.9h14.67v47.978Z" fill="#fff"/></svg>
